X: 111
T: No_39_The_Song_of_De'kûm.krn
%%abc-version 2.0
%%abcx-abcm2ps-target-version 5.9.1 (29 Sep 2008)
%%abc-creator hum2abc beta
%%abcx-conversion-date 2020/08/10 18:54:57
%%gracespace 0 6 6
%%humdrum-veritas 1547881471
%%humdrum-veritas-data 1238975492
%%linebreak <none>
%%barnumbers 0
L: 1/8
M: 3/4
%%staves {1 2}
V: 1 clef=bass
V: 2 clef=bass
K: C
[V:1] EE [I:setbarnb 1]| 
[V:2] z2 | 
[V:1] E4C2 | 
[V:2] G,,G,, G,,G,, G,,G,, | 
[V:1] D4A,2 ||  
[V:2] z6 ||  
[V:1] [M:2/4]A,4- ||  
[V:2] [M:2/4]z4 ||  
[V:1] [M:3/4]A,4EE | 
[V:2] [M:3/4]z6 | 
[V:1] E4C2 | 
[V:2] z6 | 
[V:1] D4A,2 ||  
[V:2] z6 ||  
[V:1] [M:2/4]A,4 | 
[V:2] [M:2/4]z4 | 
[V:1] A,2A,2 | 
[V:2] z4 | 
[V:1] A,3C ||  
[V:2] z4 ||  
[V:1] [M:4/4]C2A,2A,>A,G,2 | 
[V:2] [M:4/4]z8 | 
[V:1] E,4C,2C,C, ||  
[V:2] z8 ||  
[V:1] [M:3/4]D,4C,2 | 
[V:2] [M:3/4]z6 | 
[V:1] D,4C,2 | 
[V:2] z6 | 
[V:1] C,6 |]  
[V:2] z6 |]  


